X: 40110
T: Tico Tico
R: reel
M: 4/4
K: Bminor
F^EF|:"Bm"GF2B2 F^EF|"F#7"GF2^A2 F^EF|GFec ^AFE_E|"Bm"D3^A B^A=A^G|
"Em"GB2e2 GBe|"Bm"FB2d2 FB^B|"C#7"~c3d cB^AB|"F#"c3c2 F^EF|
"Bm"GF2B2 F^EF|"F#7"GF2^A2 F^EF|GFec ^AFE_E|"Bm"D3^A B^A=A^G|
"Em"GBeG BeGB|"Bm"FBdF Bd(3F^Ac|"F#"fFfg fedc|1 "Bm"B3 B2 F^EF:|2 "Bm"B3 B2 c=cB||
"C#"|:"D"ADFA DFA^A|"Em"B2G3 FG^G|"A7"AcEA cEc=c|"D"B2F3 ddF|
dFdF cFcF|"Em"B2G3 ccE|"A7"c2GB2 FG^G|"D"A2F3 =F^FG|
ADFA DFA^A|"Em"BEGB Edc/=c/B|"A7"AcEA cEA^A|"D"BF~F2 FAdc|
"G"B^ABc "G#dim"edcd|"D/A"fAdf "B"bagf|"Em"edcB "A"AGFE|1 "D"D3 D2c=cB:|2 "D"D3 D2z3||

